X:31
T:Frank's
S:The Session: https://thesession.org/tunes/646#setting55331
C:Traditional
R:reel
K:A
M:4/4
L:1/8
Q:1/4=120
|: "A"Ac BA F2 AF| "A"EF AB cA Bc| "D"d3 f ec Ae| "E"fa ec (3Bcd cB|
| "A"Ac BA F2 AF| "A"EF AB cA Bc| "D"d3 f ec Ac|1 "E"BA GB "A"A2 (3EFG:|2 "E"fa ec "A"(3Bcd (3efg|]
|: "A"ac BA EF AF| "A"EF AB cA Bc| "D" df (3fff ec Ac| "E"BA GB Ae fg||
| "A"aA Ag AA fA| "A"ef fe cA Bc|1 "D"d3 f ec Ac| "E"Bc de fe (3efg:||2 "D"d3 f eA ce| "E"fa ec (3Bcd cB|]
| "A"Ac BA F3 A| "A"EF AB cA Bc| "D"d3 f ec Ac| "E"BA GB "A"A4||

